X:44
T:Whither?
M:4/4
L:1/8
R:Reel
Q:1/4=200
K:G
BAGE D2 G2|A2AB AGE2|BAGE D2 G2|A2ABA2 A2|
BAGE D2 G2|A2AB AGE2|A2AB AGE2|AFA2G4:|
gdgd e2d2|e2ef ed B2|gdgd e2d2|efed BGBd|
gdgd e2d2|e2ef ed B2|edef edBG|AFA2 G4:|

